icons/Key.svg

<svg width="24" height="24" viewBox="0 0 24 24" fill="none" xmlns="http://www.w3.org/2000/svg">
<path fill-rule="evenodd" clip-rule="evenodd" d="M14.8839,4.44452c-0.4881,-0.48816 -1.2796,-0.48816 -1.7678,0l-3.17153,3.17157c-0.48815,0.48815 -0.48815,1.27961 0,1.76777l0.93933,0.93934l3.1465,3.1464l0.5303,0.5304l0.0554,0.0554c0.4882,0.4882 1.2797,0.4882 1.7678,0l3.1716,-3.1715c0.4881,-0.4882 0.4881,-1.27966 0,-1.76781zM12.6768,15.8839c-0.2344,0.2344 -0.5524,0.3661 -0.8839,0.3661h-1.0429v1.75c0,0.6903 -0.5596,1.25 -1.24997,1.25h-1.25v1.25c0,0.6903 -0.55964,1.25 -1.25,1.25h-3.5c-0.69036,0 -1.25,-0.5597 -1.25,-1.25v-2.7929c0,-0.3315 0.1317,-0.6495 0.36612,-0.8839l6.32322,-6.3232l-0.05546,-0.0555c-1.07394,-1.07393 -1.07394,-2.81513 0,-3.88907l3.17159,-3.17157c1.0739,-1.07395 2.8151,-1.07395 3.8891,0l4.6715,4.67157c1.074,1.07394 1.074,2.81517 0,3.88907l-3.1715,3.1716c-1.074,1.0739 -2.8152,1.0739 -3.8891,0l-0.0555,-0.0555zM12.4394,14l-2.4394,-2.4394l-6.24997,6.25v2.4394h3v-1.25c0,-0.6904 0.55964,-1.25 1.25,-1.25h1.25v-1.75c0,-0.6904 0.55964,-1.25 1.24997,-1.25h1.1894zM12.9697,6.96964c0.2929,-0.29289 0.7678,-0.29289 1.0607,0l3,3c0.2929,0.29286 0.2929,0.76776 0,1.06066c-0.2929,0.2929 -0.7678,0.2929 -1.0607,0l-3,-3c-0.2929,-0.29289 -0.2929,-0.76776 0,-1.06066z" fill="#002B51"/>
</svg>

<svg width="24" height="24" viewBox="0 0 24 24" fill="none" xmlns="http://www.w3.org/2000/svg">
<path fill-rule="evenodd" clip-rule="evenodd" d="M14.8839 4.44452C14.3958 3.95636 13.6043 3.95636 13.1161 4.44452L9.94457 7.61609C9.45642 8.10424 9.45642 8.8957 9.94457 9.38386L10.8839 10.3232L14.0304 13.4696L14.5607 14L14.6161 14.0554C15.1043 14.5436 15.8958 14.5436 16.3839 14.0554L19.5555 10.8839C20.0436 10.3957 20.0436 9.60424 19.5555 9.11609L14.8839 4.44452ZM13.5 15.0606L13.5555 15.1161C14.6294 16.19 16.3706 16.19 17.4446 15.1161L20.6161 11.9445C21.6901 10.8706 21.6901 9.12937 20.6161 8.05543L15.9446 3.38386C14.8706 2.30991 13.1294 2.30991 12.0555 3.38386L8.88391 6.55543C7.80997 7.62937 7.80997 9.37057 8.88391 10.4445L8.93937 10.5L2.61615 16.8232C2.38173 17.0576 2.25003 17.3756 2.25003 17.7071V20.5C2.25003 21.1903 2.80967 21.75 3.50003 21.75H7.00003C7.69039 21.75 8.25003 21.1903 8.25003 20.5V19.25H9.50003C10.1904 19.25 10.75 18.6903 10.75 18V16.25H11.7929C12.1244 16.25 12.4424 16.1183 12.6768 15.8839L13.5 15.0606ZM12.4394 14L10 11.5606L3.75003 17.8106V20.25H6.75003V19C6.75003 18.3096 7.30967 17.75 8.00003 17.75H9.25003V16C9.25003 15.3096 9.80967 14.75 10.5 14.75H11.6894L12.4394 14ZM12.9697 6.96964C13.2626 6.67675 13.7375 6.67675 14.0304 6.96964L17.0304 9.96964C17.3233 10.2625 17.3233 10.7374 17.0304 11.0303C16.7375 11.3232 16.2626 11.3232 15.9697 11.0303L12.9697 8.0303C12.6768 7.73741 12.6768 7.26254 12.9697 6.96964Z" fill="#002B51"/>
</svg>
